X:1
T:Title
%%score ( 1 2 ) { 3 | 4 }
L:1/8
Q:1/4=105
M:4/4
K:D
V:1 treble nm="Grand Piano, Staff 1"
V:2 treble 
V:3 bass nm="Choir Pad, Winter, CM"
V:4 bass 
V:1
 [A,D]2 [DA]2 [DA]2 [DB]2 | A-[EA] [Fd]2 AF [A,D]2 | [GB]2 [FA]2 [EG]2 [DF]2 | %3
w: By~Daniel~Read,~1785~ * * *|||
 [CE][B,D] [CA]2 z/ [FA]3/2 z/ GB/- | %4
w: |
 B/[CE][EG]/- [EG]/[DF][FA]/- [FA]/D[A,C]/- [A,C]/[A,D][Dd]/- | %5
w: |
 [Dd]/cB/ c<[Fd]- [Fd]>[FA]- [FA]/[DB][B,G]/- | [B,G]/[CE]/[DF] [EG]<[DF]- [DF]<[CE]- [CE]<D- | %7
w: ||
 D6 z2 |] %8
w: |
V:2
 x8 | .D2 z2 D2 z2 | x8 | z4 z2 z/ D3/2 | x8 | z/ F3/2 z2 z4 | x8 | x8 |] %8
V:3
 F,2 F,2 A,2 D2 | A,G,F,B, A,2 A,2 | G,2 A,2 B,2 A,D, | A,[K:treble]D C2 z/ D3/2- D<B,- | %4
 B,<[K:bass]B,- B,<A,- A,/A,G,/- G,/F,A,/- | A,<A,- A,<A,- A,>A,- A,<[K:treble]D- | %6
 D/CB,/- B,<[K:bass]A,- A,<A,- A,<A,- | A,6 z2 |] %8
V:4
 D,2 D,2 F,2 G,2 | F,E, D,2 D,2 D,2 | E,2 F,2 G,2 z2 | C,B,, A,,2 z/ D,3/2- D,<G,- | %4
 G,<E,- E,<F,- F,/F,E,/- E,<D, | z/ A,,3/2- A,,<D,- D,>D,- D,<B,,- | %6
 B,,<C, z/ D,3/2- D,<A,,- A,,<D,- | D,6 z2 |] %8

